images/portal/5877.svg

<?xml version="1.0" standalone="no"?><!DOCTYPE svg PUBLIC "-//W3C//DTD SVG 1.1//EN" "http://www.w3.org/Graphics/SVG/1.1/DTD/svg11.dtd"><svg xmlns:xlink="http://www.w3.org/1999/xlink" version="1.1" class="highcharts-root" style="font-family:arial;font-size:12px;" xmlns="http://www.w3.org/2000/svg" viewBox="0 0 665 208"><desc>Created with Highstock 5.0.14</desc><defs><clipPath id="highcharts-4t18u07-6"><rect x="0" y="0" width="616" height="73" fill="none"></rect></clipPath><clipPath id="highcharts-4t18u07-7"><rect x="0" y="0" width="616" height="73" fill="none"></rect></clipPath></defs><rect fill="#fbfbfb" class="highcharts-background" x="0" y="0" width="665" height="208" rx="0" ry="0"></rect><rect fill="none" class="highcharts-plot-background" x="46" y="56" width="616" height="73"></rect><g class="highcharts-pane-group"></g><g class="highcharts-grid highcharts-xaxis-grid "><path fill="none" class="highcharts-grid-line" d="M 74.5 56 L 74.5 129" opacity="1"></path><path fill="none" class="highcharts-grid-line" d="M 104.5 56 L 104.5 129" opacity="1"></path><path fill="none" class="highcharts-grid-line" d="M 133.5 56 L 133.5 129" opacity="1"></path><path fill="none" class="highcharts-grid-line" d="M 162.5 56 L 162.5 129" opacity="1"></path><path fill="none" class="highcharts-grid-line" d="M 192.5 56 L 192.5 129" opacity="1"></path><path fill="none" class="highcharts-grid-line" d="M 221.5 56 L 221.5 129" opacity="1"></path><path fill="none" class="highcharts-grid-line" d="M 250.5 56 L 250.5 129" opacity="1"></path><path fill="none" class="highcharts-grid-line" d="M 280.5 56 L 280.5 129" opacity="1"></path><path fill="none" class="highcharts-grid-line" d="M 309.5 56 L 309.5 129" opacity="1"></path><path fill="none" class="highcharts-grid-line" d="M 338.5 56 L 338.5 129" opacity="1"></path><path fill="none" class="highcharts-grid-line" d="M 368.5 56 L 368.5 129" opacity="1"></path><path fill="none" class="highcharts-grid-line" d="M 397.5 56 L 397.5 129" opacity="1"></path><path fill="none" class="highcharts-grid-line" d="M 426.5 56 L 426.5 129" opacity="1"></path><path fill="none" class="highcharts-grid-line" d="M 456.5 56 L 456.5 129" opacity="1"></path><path fill="none" class="highcharts-grid-line" d="M 485.5 56 L 485.5 129" opacity="1"></path><path fill="none" class="highcharts-grid-line" d="M 514.5 56 L 514.5 129" opacity="1"></path><path fill="none" class="highcharts-grid-line" d="M 544.5 56 L 544.5 129" opacity="1"></path><path fill="none" class="highcharts-grid-line" d="M 573.5 56 L 573.5 129" opacity="1"></path><path fill="none" class="highcharts-grid-line" d="M 602.5 56 L 602.5 129" opacity="1"></path><path fill="none" class="highcharts-grid-line" d="M 632.5 56 L 632.5 129" opacity="1"></path><path fill="none" class="highcharts-grid-line" d="M 661.5 56 L 661.5 129" opacity="1"></path><path fill="none" class="highcharts-grid-line" d="M 45.5 56 L 45.5 129" opacity="1"></path></g><g class="highcharts-grid highcharts-yaxis-grid "><path fill="none" stroke="#B9CFD7" stroke-width="0.5" class="highcharts-grid-line" d="M 46 129.25 L 662 129.25" opacity="1"></path><path fill="none" stroke="#B9CFD7" stroke-width="0.5" class="highcharts-grid-line" d="M 46 93.25 L 662 93.25" opacity="1"></path><path fill="none" stroke="#B9CFD7" stroke-width="0.5" class="highcharts-grid-line" d="M 46 55.75 L 662 55.75" opacity="1"></path></g><rect fill="none" class="highcharts-plot-border" x="46" y="56" width="616" height="73"></rect><g class="highcharts-axis highcharts-xaxis "><path fill="none" class="highcharts-tick" stroke="#FFFFFF" stroke-width="1" d="M 74.5 129 L 74.5 139" opacity="1"></path><path fill="none" class="highcharts-tick" stroke="#FFFFFF" stroke-width="1" d="M 104.5 129 L 104.5 139" opacity="1"></path><path fill="none" class="highcharts-tick" stroke="#FFFFFF" stroke-width="1" d="M 133.5 129 L 133.5 139" opacity="1"></path><path fill="none" class="highcharts-tick" stroke="#FFFFFF" stroke-width="1" d="M 162.5 129 L 162.5 139" opacity="1"></path><path fill="none" class="highcharts-tick" stroke="#FFFFFF" stroke-width="1" d="M 192.5 129 L 192.5 139" opacity="1"></path><path fill="none" class="highcharts-tick" stroke="#FFFFFF" stroke-width="1" d="M 221.5 129 L 221.5 139" opacity="1"></path><path fill="none" class="highcharts-tick" stroke="#FFFFFF" stroke-width="1" d="M 250.5 129 L 250.5 139" opacity="1"></path><path fill="none" class="highcharts-tick" stroke="#FFFFFF" stroke-width="1" d="M 280.5 129 L 280.5 139" opacity="1"></path><path fill="none" class="highcharts-tick" stroke="#FFFFFF" stroke-width="1" d="M 309.5 129 L 309.5 139" opacity="1"></path><path fill="none" class="highcharts-tick" stroke="#FFFFFF" stroke-width="1" d="M 338.5 129 L 338.5 139" opacity="1"></path><path fill="none" class="highcharts-tick" stroke="#FFFFFF" stroke-width="1" d="M 368.5 129 L 368.5 139" opacity="1"></path><path fill="none" class="highcharts-tick" stroke="#FFFFFF" stroke-width="1" d="M 397.5 129 L 397.5 139" opacity="1"></path><path fill="none" class="highcharts-tick" stroke="#FFFFFF" stroke-width="1" d="M 426.5 129 L 426.5 139" opacity="1"></path><path fill="none" class="highcharts-tick" stroke="#FFFFFF" stroke-width="1" d="M 456.5 129 L 456.5 139" opacity="1"></path><path fill="none" class="highcharts-tick" stroke="#FFFFFF" stroke-width="1" d="M 485.5 129 L 485.5 139" opacity="1"></path><path fill="none" class="highcharts-tick" stroke="#FFFFFF" stroke-width="1" d="M 514.5 129 L 514.5 139" opacity="1"></path><path fill="none" class="highcharts-tick" stroke="#FFFFFF" stroke-width="1" d="M 544.5 129 L 544.5 139" opacity="1"></path><path fill="none" class="highcharts-tick" stroke="#FFFFFF" stroke-width="1" d="M 573.5 129 L 573.5 139" opacity="1"></path><path fill="none" class="highcharts-tick" stroke="#FFFFFF" stroke-width="1" d="M 602.5 129 L 602.5 139" opacity="1"></path><path fill="none" class="highcharts-tick" stroke="#FFFFFF" stroke-width="1" d="M 632.5 129 L 632.5 139" opacity="1"></path><path fill="none" class="highcharts-tick" stroke="#FFFFFF" stroke-width="1" d="M 661.5 129 L 661.5 139" opacity="1"></path><path fill="none" class="highcharts-tick" stroke="#FFFFFF" stroke-width="1" d="M 45.5 129 L 45.5 139" opacity="1"></path><path fill="none" class="highcharts-axis-line" stroke="#B9CFD7" stroke-width="0.5" d="M 46 129.25 L 662 129.25"></path></g><g class="highcharts-axis highcharts-yaxis "><path fill="none" class="highcharts-axis-line" d="M 46 56 L 46 129"></path></g><g class="highcharts-series-group"><g class="highcharts-series highcharts-series-0 highcharts-column-series highcharts-color-undefined " transform="translate(46,56) scale(1 1)" clip-path="url(#highcharts-4t18u07-7)"><rect x="8" y="37" width="15" height="1" fill="#83522E" class="highcharts-point"></rect><rect x="37" y="33" width="15" height="5" fill="#83522E" class="highcharts-point"></rect><rect x="66" y="35" width="15" height="3" fill="#83522E" class="highcharts-point"></rect><rect x="96" y="33" width="15" height="5" fill="#83522E" class="highcharts-point"></rect><rect x="125" y="33" width="15" height="5" fill="#83522E" class="highcharts-point"></rect><rect x="154" y="26" width="15" height="12" fill="#83522E" class="highcharts-point"></rect><rect x="184" y="34" width="15" height="4" fill="#83522E" class="highcharts-point"></rect><rect x="213" y="35" width="15" height="3" fill="#83522E" class="highcharts-point"></rect><rect x="242" y="38" width="15" height="1" fill="#83522E" class="highcharts-point highcharts-negative"></rect><rect x="272" y="35" width="15" height="3" fill="#83522E" class="highcharts-point"></rect><rect x="301" y="27" width="15" height="11" fill="#83522E" class="highcharts-point"></rect><rect x="330" y="37" width="15" height="1" fill="#83522E" class="highcharts-point"></rect><rect x="360" y="37" width="15" height="1" fill="#83522E" class="highcharts-point"></rect><rect x="389" y="33" width="15" height="5" fill="#83522E" class="highcharts-point"></rect><rect x="418" y="31" width="15" height="7" fill="#83522E" class="highcharts-point"></rect><rect x="448" y="6" width="15" height="32" fill="#83522E" class="highcharts-point"></rect><rect x="477" y="35" width="15" height="3" fill="#83522E" class="highcharts-point"></rect><rect x="506" y="37" width="15" height="1" fill="#83522E" class="highcharts-point"></rect><rect x="536" y="34" width="15" height="4" fill="#83522E" class="highcharts-point"></rect><rect x="565" y="29" width="15" height="9" fill="#83522E" class="highcharts-point"></rect><rect x="594" y="37" width="15" height="1" fill="#83522E" class="highcharts-point"></rect></g><g class="highcharts-markers highcharts-series-0 highcharts-column-series highcharts-color-undefined " transform="translate(46,56) scale(1 1)" clip-path="none"></g></g><text x="3" text-anchor="start" class="highcharts-title" style="color:#000000;font-size:10px;font-weight:bold;fill:#000000;" y="22"><tspan>Nettowohnungsproduktion</tspan></text><text x="3" text-anchor="start" class="highcharts-subtitle" style="color:#000000;font-size:10px;font-weight:normal;font-family:arial;fill:#000000;" y="40"><tspan>nach Wohnviertel von 2007 bis 2016</tspan></text><g class="highcharts-axis-labels highcharts-xaxis-labels "><text x="64.66666666666666" style="color:#000000;cursor:default;font-size:10;fill:#000000;" text-anchor="end" transform="translate(0,0) rotate(-90 64.66666666666666 141)" y="141" opacity="1"><tspan>Altstadt GB</tspan></text><text x="93.99999999999999" style="color:#000000;cursor:default;font-size:10;fill:#000000;" text-anchor="end" transform="translate(0,0) rotate(-90 93.99999999999999 141)" y="141" opacity="1"><tspan>Vorstädte</tspan></text><text x="123.33333333333333" style="color:#000000;cursor:default;font-size:10;fill:#000000;" text-anchor="end" transform="translate(0,0) rotate(-90 123.33333333333333 141)" y="141" opacity="1"><tspan>Am Ring</tspan></text><text x="152.66666666666666" style="color:#000000;cursor:default;font-size:10;fill:#000000;" text-anchor="end" transform="translate(0,0) rotate(-90 152.66666666666666 141)" y="141" opacity="1"><tspan>Breite</tspan></text><text x="182" style="color:#000000;cursor:default;font-size:10;fill:#000000;" text-anchor="end" transform="translate(0,0) rotate(-90 182 141)" y="141" opacity="1"><tspan>St. Alban</tspan></text><text x="211.33333333333331" style="color:#000000;cursor:default;font-size:10;fill:#000000;" text-anchor="end" transform="translate(0,0) rotate(-90 211.33333333333331 141)" y="141" opacity="1"><tspan>Gundeldingen</tspan></text><text x="240.66666666666666" style="color:#000000;cursor:default;font-size:10;fill:#000000;" text-anchor="end" transform="translate(0,0) rotate(-90 240.66666666666666 141)" y="141" opacity="1"><tspan>Bruderholz</tspan></text><text x="269.99999999999994" style="color:#000000;cursor:default;font-size:10;fill:#000000;" text-anchor="end" transform="translate(0,0) rotate(-90 269.99999999999994 141)" y="141" opacity="1"><tspan>Bachletten</tspan></text><text x="299.3333333333333" style="color:#000000;cursor:default;font-size:10;fill:#000000;" text-anchor="end" transform="translate(0,0) rotate(-90 299.3333333333333 141)" y="141" opacity="1"><tspan>Gotthelf</tspan></text><text x="328.66666666666663" style="color:#000000;cursor:default;font-size:10;fill:#000000;" text-anchor="end" transform="translate(0,0) rotate(-90 328.66666666666663 141)" y="141" opacity="1"><tspan>Iselin</tspan></text><text x="358" style="color:#000000;cursor:default;font-size:10;fill:#000000;" text-anchor="end" transform="translate(0,0) rotate(-90 358 141)" y="141" opacity="1"><tspan>St. Johann</tspan></text><text x="387.3333333333333" style="color:#000000;cursor:default;font-size:10;fill:#000000;" text-anchor="end" transform="translate(0,0) rotate(-90 387.3333333333333 141)" y="141" opacity="1"><tspan>Altstadt KB</tspan></text><text x="416.66666666666663" style="color:#000000;cursor:default;font-size:10;fill:#000000;" text-anchor="end" transform="translate(0,0) rotate(-90 416.66666666666663 141)" y="141" opacity="1"><tspan>Clara</tspan></text><text x="446" style="color:#000000;cursor:default;font-size:10;fill:#000000;" text-anchor="end" transform="translate(0,0) rotate(-90 446 141)" y="141" opacity="1"><tspan>Wettstein</tspan></text><text x="475.3333333333333" style="color:#000000;cursor:default;font-size:10;fill:#000000;" text-anchor="end" transform="translate(0,0) rotate(-90 475.3333333333333 141)" y="141" opacity="1"><tspan>Hirzbrunnen</tspan></text><text x="504.6666666666666" style="color:#000000;cursor:default;font-size:10;fill:#000000;" text-anchor="end" transform="translate(0,0) rotate(-90 504.6666666666666 141)" y="141" opacity="1"><tspan>Rosental</tspan></text><text x="534.0000000000001" style="color:#000000;cursor:default;font-size:10;fill:#000000;" text-anchor="end" transform="translate(0,0) rotate(-90 534.0000000000001 141)" y="141" opacity="1"><tspan>Matthäus</tspan></text><text x="563.3333333333333" style="color:#000000;cursor:default;font-size:10;fill:#000000;" text-anchor="end" transform="translate(0,0) rotate(-90 563.3333333333333 141)" y="141" opacity="1"><tspan>Klybeck</tspan></text><text x="592.6666666666666" style="color:#000000;cursor:default;font-size:10;fill:#000000;" text-anchor="end" transform="translate(0,0) rotate(-90 592.6666666666666 141)" y="141" opacity="1"><tspan>Kleinhüningen</tspan></text><text x="622" style="color:#000000;cursor:default;font-size:10;fill:#000000;" text-anchor="end" transform="translate(0,0) rotate(-90 622 141)" y="141" opacity="1"><tspan>Riehen</tspan></text><text x="651.3333333333333" style="color:#000000;cursor:default;font-size:10;fill:#000000;" text-anchor="end" transform="translate(0,0) rotate(-90 651.3333333333333 141)" y="141" opacity="1"><tspan>Bettingen</tspan></text></g><g class="highcharts-axis-labels highcharts-yaxis-labels "><text x="31" style="color:#000000;cursor:default;font-size:10;fill:#000000;" text-anchor="end" transform="translate(0,0)" y="98" opacity="1"><tspan>0</tspan></text><text x="31" style="color:#000000;cursor:default;font-size:10;fill:#000000;" text-anchor="end" transform="translate(0,0)" y="62" opacity="1"><tspan>1 000</tspan></text><text x="31" style="color:#000000;cursor:default;font-size:10;fill:#000000;" text-anchor="end" transform="translate(0,0)" y="135" opacity="1"><tspan>-1 000</tspan></text></g><text x="10" class="highcharts-credits" text-anchor="start" style="cursor:default;color:#000000;font-size:10;fill:#000000;" y="193"><tspan>Quelle: Statistisches Amt Basel-Stadt, Gebäude- und Wohnungsstatistik</tspan></text></svg>

<svg class="highcharts-root" xmlns="http://www.w3.org/2000/svg" viewBox="0 0 665 208" font-family="arial" font-size="12">
    <defs>
        <clipPath id="a">
            <path fill="none" d="M0 0h616v73H0z"/>
        </clipPath>
    </defs>
    <rect fill="#fbfbfb" class="highcharts-background" width="665" height="208" rx="0" ry="0"/>
    <path fill="none" class="highcharts-plot-background" d="M46 56h616v73H46z"/>
    <g class="highcharts-grid highcharts-xaxis-grid">
        <path fill="none" class="highcharts-grid-line" d="M74.5 56v73m30-73v73m29-73v73m29-73v73m30-73v73m29-73v73m29-73v73m30-73v73m29-73v73m29-73v73m30-73v73m29-73v73m29-73v73m30-73v73m29-73v73m29-73v73m30-73v73m29-73v73m29-73v73m30-73v73m29-73v73m-616-73v73"/>
    </g>
    <g class="highcharts-grid highcharts-yaxis-grid">
        <path fill="none" stroke="#B9CFD7" stroke-width=".5" class="highcharts-grid-line" d="M46 129.25h616m-616-36h616M46 55.75h616"/>
    </g>
    <path fill="none" class="highcharts-plot-border" d="M46 56h616v73H46z"/>
    <g class="highcharts-axis highcharts-xaxis">
        <path fill="none" class="highcharts-tick" stroke="#FFF" d="M74.5 129v10m30-10v10m29-10v10m29-10v10m30-10v10m29-10v10m29-10v10m30-10v10m29-10v10m29-10v10m30-10v10m29-10v10m29-10v10m30-10v10m29-10v10m29-10v10m30-10v10m29-10v10m29-10v10m30-10v10m29-10v10m-616-10v10"/>
        <path fill="none" class="highcharts-axis-line" stroke="#B9CFD7" stroke-width=".5" d="M46 129.25h616"/>
    </g>
    <g class="highcharts-axis highcharts-yaxis">
        <path fill="none" class="highcharts-axis-line" d="M46 56v73"/>
    </g>
    <g class="highcharts-series-group">
        <g class="highcharts-series highcharts-series-0 highcharts-column-series highcharts-color-undefined" transform="translate(46 56)" clip-path="url(#a)">
            <path fill="#83522E" class="highcharts-point" d="M8 37h15v1H8zm29-4h15v5H37zm29 2h15v3H66zm30-2h15v5H96zm29 0h15v5h-15zm29-7h15v12h-15zm30 8h15v4h-15zm29 1h15v3h-15z"/>
            <path fill="#83522E" class="highcharts-point highcharts-negative" d="M242 38h15v1h-15z"/>
            <path fill="#83522E" class="highcharts-point" d="M272 35h15v3h-15zm29-8h15v11h-15zm29 10h15v1h-15zm30 0h15v1h-15zm29-4h15v5h-15zm29-2h15v7h-15zm30-25h15v32h-15zm29 29h15v3h-15zm29 2h15v1h-15zm30-3h15v4h-15zm29-5h15v9h-15zm29 8h15v1h-15z"/>
        </g>
    </g>
    <text x="3" class="highcharts-title" y="22" color="#000" font-size="10" font-weight="700">
        <tspan>Nettowohnungsproduktion</tspan>
    </text>
    <text x="3" class="highcharts-subtitle" y="40" color="#000" font-size="10" font-weight="400">
        <tspan>nach Wohnviertel von 2007 bis 2016</tspan>
    </text>
    <g class="highcharts-axis-labels highcharts-xaxis-labels" text-anchor="end" color="#000" cursor="default" font-size="10">
        <text x="64.667" transform="rotate(-90 64.667 141)" y="141">
            <tspan>Altstadt GB</tspan>
        </text>
        <text x="94" transform="rotate(-90 94 141)" y="141">
            <tspan>Vorstädte</tspan>
        </text>
        <text x="123.333" transform="rotate(-90 123.333 141)" y="141">
            <tspan>Am Ring</tspan>
        </text>
        <text x="152.667" transform="rotate(-90 152.667 141)" y="141">
            <tspan>Breite</tspan>
        </text>
        <text x="182" transform="rotate(-90 182 141)" y="141">
            <tspan>St. Alban</tspan>
        </text>
        <text x="211.333" transform="rotate(-90 211.333 141)" y="141">
            <tspan>Gundeldingen</tspan>
        </text>
        <text x="240.667" transform="rotate(-90 240.667 141)" y="141">
            <tspan>Bruderholz</tspan>
        </text>
        <text x="270" transform="rotate(-90 270 141)" y="141">
            <tspan>Bachletten</tspan>
        </text>
        <text x="299.333" transform="rotate(-90 299.333 141)" y="141">
            <tspan>Gotthelf</tspan>
        </text>
        <text x="328.667" transform="rotate(-90 328.667 141)" y="141">
            <tspan>Iselin</tspan>
        </text>
        <text x="358" transform="rotate(-90 358 141)" y="141">
            <tspan>St. Johann</tspan>
        </text>
        <text x="387.333" transform="rotate(-90 387.333 141)" y="141">
            <tspan>Altstadt KB</tspan>
        </text>
        <text x="416.667" transform="rotate(-90 416.667 141)" y="141">
            <tspan>Clara</tspan>
        </text>
        <text x="446" transform="rotate(-90 446 141)" y="141">
            <tspan>Wettstein</tspan>
        </text>
        <text x="475.333" transform="rotate(-90 475.333 141)" y="141">
            <tspan>Hirzbrunnen</tspan>
        </text>
        <text x="504.667" transform="rotate(-90 504.667 141)" y="141">
            <tspan>Rosental</tspan>
        </text>
        <text x="534" transform="rotate(-90 534 141)" y="141">
            <tspan>Matthäus</tspan>
        </text>
        <text x="563.333" transform="rotate(-90 563.333 141)" y="141">
            <tspan>Klybeck</tspan>
        </text>
        <text x="592.667" transform="rotate(-90 592.667 141)" y="141">
            <tspan>Kleinhüningen</tspan>
        </text>
        <text x="622" transform="rotate(-90 622 141)" y="141">
            <tspan>Riehen</tspan>
        </text>
        <text x="651.333" transform="rotate(-90 651.333 141)" y="141">
            <tspan>Bettingen</tspan>
        </text>
    </g>
    <g class="highcharts-axis-labels highcharts-yaxis-labels" text-anchor="end" color="#000" cursor="default" font-size="10">
        <text x="31" y="98">
            <tspan>0</tspan>
        </text>
        <text x="31" y="62">
            <tspan>1 000</tspan>
        </text>
        <text x="31" y="135">
            <tspan>-1 000</tspan>
        </text>
    </g>
    <text x="10" class="highcharts-credits" y="193" cursor="default" color="#000" font-size="10">
        <tspan>Quelle: Statistisches Amt Basel-Stadt, Gebäude- und Wohnungsstatistik</tspan>
    </text>
</svg>
